Hatter-kde-dark/actions/16/format-line-spacing-triple.svg

<?xml version="1.0" encoding="UTF-8"?>
<svg viewBox="0 0 16 16" xmlns="http://www.w3.org/2000/svg">
 <defs id="defs3051">
  <style id="current-color-scheme" type="text/css">.ColorScheme-Text {
        color:#dedede;
      }</style>
 </defs>
 <path class="ColorScheme-Text" d="m5 2v1h-3v1 8 1h3v1h9v-3h-9v1h-2v-3h1v-2h-1v-3h2v1h9v-3h-9z" fill="currentColor"/>
</svg>

<svg xmlns="http://www.w3.org/2000/svg" viewBox="0 0 16 16">
  <defs id="defs3051">
    <style type="text/css" id="current-color-scheme">
      .ColorScheme-Text {
        color:#dedede;
      }
      </style>
  </defs>
 <path style="fill:currentColor;fill-opacity:1;stroke:none" 
       d="M 5 2 L 5 3 L 2 3 L 2 4 L 2 12 L 2 13 L 5 13 L 5 14 L 14 14 L 14 11 L 5 11 L 5 12 L 3 12 L 3 9 L 4 9 L 4 7 L 3 7 L 3 4 L 5 4 L 5 5 L 14 5 L 14 2 L 5 2 z "
     class="ColorScheme-Text"
     />
</svg>
